X:51
M:6/8
L:1/8
K:G
|:(BG)B (dB)d|gfe dBG|(BG)B dBd|fga ABc|(d/e/f)d (e/f/g)e|dec dBG|(e/f/g)e dBG|A3 G3:|

